projects/svn/images/icons/vk.svg

<svg width="28" height="16" viewBox="0 0 28 16" fill="none" xmlns="http://www.w3.org/2000/svg">
<path d="M24.5153 7.13684C22.8088 9.33193 22.9401 9.33193 24.9092 11.1397C26.8783 12.9474 29.5037 15.7881 26.6157 15.7881H22.9401C20.8397 15.7881 20.4459 14.626 18.7393 12.9474C17.164 11.3979 16.3764 12.56 16.3764 14.7551C16.3764 15.2716 15.9826 15.7881 15.3262 15.7881C13.0945 15.7881 9.94397 16.0463 6.79341 12.6891C3.24902 9.07369 0.361001 2.61753 0.0984537 1.97191C-0.164093 1.32629 0.0984631 0.938924 0.886104 0.938924H4.69303C5.61195 0.938924 5.74322 1.45542 6.00576 2.10103C7.18723 4.6835 9.94397 9.84843 10.7316 7.00772C11.2567 5.32911 11.388 1.84279 9.55016 1.45542C8.23743 1.19717 11.388 -0.352309 15.0636 0.42243C16.3764 0.8098 16.3764 1.32629 16.3764 2.23016C16.2451 5.45824 15.8513 7.39509 16.7702 7.91158C17.5578 8.42807 19.7895 5.07087 20.9709 2.35928C21.3648 1.58454 21.3648 1.06805 22.2837 1.06805H26.8783C29.3725 1.06805 26.6157 4.42525 24.5153 7.13684Z" fill="white"/>
</svg>

<svg width="28" height="16" fill="none" xmlns="http://www.w3.org/2000/svg"><path d="M24.515 7.137c-1.706 2.195-1.575 2.195.394 4.003 1.97 1.807 4.595 4.648 1.707 4.648H22.94c-2.1 0-2.494-1.162-4.2-2.84-1.576-1.55-2.364-.388-2.364 1.807 0 .517-.393 1.033-1.05 1.033-2.232 0-5.382.258-8.533-3.099C3.25 9.074.361 2.618.098 1.972-.164 1.326.098.939.886.939h3.807c.919 0 1.05.516 1.313 1.162 1.181 2.583 3.938 7.747 4.726 4.907.525-1.679.656-5.165-1.182-5.553-1.313-.258 1.838-1.807 5.514-1.033 1.312.388 1.312.904 1.312 1.808-.13 3.228-.525 5.165.394 5.682.788.516 3.02-2.841 4.2-5.553.395-.774.395-1.291 1.314-1.291h4.594c2.494 0-.262 3.357-2.363 6.069z" fill="#fff"/></svg>
